packages/icons/svg/24/Rotate90DegreesCc.svg

<svg width="24" height="24" viewBox="0 0 24 24" fill="none" xmlns="http://www.w3.org/2000/svg">
<path fill-rule="evenodd" clip-rule="evenodd" d="M2.27995 11.49L5.92995 7.83002C6.70995 7.04002 7.96995 7.04002 8.75995 7.82002L12.4299 11.5C13.2099 12.28 13.2099 13.55 12.4299 14.33L8.76995 17.98C7.98995 18.76 6.71995 18.76 5.93995 17.98L2.27995 14.32C1.49995 13.54 1.49995 12.27 2.27995 11.49ZM6.65004 9.94002L4.40004 12.19C4.01004 12.58 4.01004 13.22 4.40004 13.61L6.64004 15.84C7.04004 16.23 7.67004 16.23 8.06004 15.84L10.31 13.59C10.7 13.2 10.7 12.57 10.31 12.18L8.07004 9.94002C7.67004 9.55002 7.04004 9.55002 6.65004 9.94002Z" fill="#858585"/>
<path fill-rule="evenodd" clip-rule="evenodd" d="M19.36 6.64003C17.61 4.88003 15.3 4.00003 13 4.00003V3.17003C13 2.28003 11.92 1.83003 11.29 2.46003L9.47 4.29003C9.08 4.68003 9.08 5.31003 9.47 5.70003L11.3 7.53003C11.92 8.16003 13 7.72003 13 6.83003V6.00003C15.02 6.00003 17.03 6.86003 18.45 8.61003C20.5 11.13 20.5 14.88 18.45 17.4C17.03 19.14 15.02 20 13 20C12.22 20 11.45 19.87 10.71 19.61C10.35 19.49 9.96 19.6 9.69 19.87C9.19 20.37 9.35 21.26 10.03 21.49C10.99 21.83 11.99 22 13 22C15.3 22 17.61 21.12 19.36 19.36C22.88 15.85 22.88 10.15 19.36 6.64003Z" fill="#858585"/>
</svg>

<svg width="24" height="24" fill="none" xmlns="http://www.w3.org/2000/svg" viewBox="0 0 24 24"><path fill-rule="evenodd" clip-rule="evenodd" d="M2.28 11.49l3.65-3.66c.78-.79 2.04-.79 2.83-.01l3.67 3.68c.78.78.78 2.05 0 2.83l-3.66 3.65c-.78.78-2.05.78-2.83 0l-3.66-3.66c-.78-.78-.78-2.05 0-2.83zm4.37-1.55L4.4 12.19c-.39.39-.39 1.03 0 1.42l2.24 2.23c.4.39 1.03.39 1.42 0l2.25-2.25a.996.996 0 000-1.41L8.07 9.94c-.4-.39-1.03-.39-1.42 0z" fill="currentColor"></path><path fill-rule="evenodd" clip-rule="evenodd" d="M19.36 6.64A8.95 8.95 0 0013 4v-.83c0-.89-1.08-1.34-1.71-.71L9.47 4.29a.996.996 0 000 1.41l1.83 1.83c.62.63 1.7.19 1.7-.7V6c2.02 0 4.03.86 5.45 2.61 2.05 2.52 2.05 6.27 0 8.79a6.985 6.985 0 01-7.74 2.21.998.998 0 00-1.02.26c-.5.5-.34 1.39.34 1.62a8.95 8.95 0 009.33-2.13 8.98 8.98 0 000-12.72z" fill="currentColor"></path></svg>
